X: 27307
T: Missing, The
R: reel
M: 4/4
K: Dmajor
fA A2 ABde|f3e dBBc|dA A2 ABde|fgfe dcde|
fA A2 ABde|f3e dBBA|FAAF ABde|fgfe d3 e||
faaf a2 fa|a2 fd edBd|faaf a2 fa|a2 fa b3 a|
faaf a2 fa|a2 fd edBc|dAAF ABde|fgfe d4||

